src/lib/packages/icons/src/assets/line/coin.svg

<svg xmlns="http://www.w3.org/2000/svg" width="24" height="24" fill="none"><path fill="currentColor" d="M12 4.25c-5.467 0-9.75 2.306-9.75 5.25v5c0 3.238 3.736 5.25 9.75 5.25 6.014 0 9.75-2.012 9.75-5.25v-5c0-2.944-4.283-5.25-9.75-5.25Zm0 1.5c4.862 0 8.25 1.976 8.25 3.75s-3.388 3.75-8.25 3.75-8.25-1.976-8.25-3.75S7.138 5.75 12 5.75Zm-.75 8.98v3.507c-1.187-.04-2.402-.178-3.5-.437v-3.564c1.068.273 2.246.445 3.5.494Zm1.5 0a16.836 16.836 0 0 0 3.5-.494V17.8c-1.098.258-2.313.396-3.5.437V14.73Zm-9-.23v-2.174c.656.562 1.504 1.047 2.5 1.434v3.571c-1.478-.595-2.5-1.507-2.5-2.831Zm14 2.831V13.76c.996-.387 1.844-.872 2.5-1.434V14.5c0 1.324-1.022 2.236-2.5 2.831Z"/></svg>

<svg width="24" height="24" viewBox="0 0 24 24" fill="none" xmlns="http://www.w3.org/2000/svg">
<path d="M12 4.25C6.533 4.25 2.25 6.556 2.25 9.5V14.5C2.25 17.738 5.986 19.75 12 19.75C18.014 19.75 21.75 17.738 21.75 14.5V9.5C21.75 6.556 17.467 4.25 12 4.25ZM12 5.75C16.862 5.75 20.25 7.726 20.25 9.5C20.25 11.274 16.862 13.25 12 13.25C7.138 13.25 3.75 11.274 3.75 9.5C3.75 7.726 7.138 5.75 12 5.75ZM11.25 14.73V18.237C10.063 18.197 8.848 18.059 7.75 17.8V14.236C8.818 14.509 9.996 14.681 11.25 14.73ZM12.75 14.73C14.004 14.681 15.182 14.509 16.25 14.236V17.8C15.152 18.058 13.937 18.196 12.75 18.237V14.73ZM3.75 14.5V12.326C4.406 12.888 5.254 13.373 6.25 13.76V17.331C4.772 16.736 3.75 15.824 3.75 14.5ZM17.75 17.331V13.76C18.746 13.373 19.594 12.888 20.25 12.326V14.5C20.25 15.824 19.228 16.736 17.75 17.331Z" fill="currentColor"/>
</svg>
